svg/white/gup.svg

<svg xmlns="http://www.w3.org/2000/svg" width="32" height="32" viewBox="0 0 32 32">
  <path fill="#FFF" d="M16,32 C7.163444,32 0,24.836556 0,16 C0,7.163444 7.163444,0 16,0 C24.836556,0 32,7.163444 32,16 C32,24.836556 24.836556,32 16,32 Z M15.9896177,12.6785074 L18.7903051,9.85850429 C17.9554662,8.50513527 17.0228599,7.21548371 16.0000432,6 C14.9754704,7.22091158 14.0415036,8.51611121 13.2057104,9.87510431 L15.9896177,12.6785074 Z M21.7082546,15.4895106 C20.9492779,13.8133087 20.1927835,12.255007 19.3177363,10.7411053 L15.9896177,14.092609 L12.6794708,10.7593053 C11.8518844,12.1972069 11.122397,13.6934086 10.4000585,15.3160104 C9.6138763,17.5176128 8.32151105,19.8926154 9.43078461,22.0074178 C11.3371624,25.6514218 15.8171501,27.0612234 19.4357927,25.1416213 C20.762047,24.4351112 21.846544,23.3430378 22.5482523,22.0074178 C23.6468024,19.8926154 22.4944368,17.691013 21.7082546,15.4895106 Z"/>
</svg>

<svg xmlns="http://www.w3.org/2000/svg" width="32" height="32"><path fill="#FFF" d="M16 32C7.163 32 0 24.837 0 16S7.163 0 16 0s16 7.163 16 16-7.163 16-16 16zm-.01-19.321l2.8-2.82A32.464 32.464 0 0 0 16 6a32.574 32.574 0 0 0-2.794 3.875l2.784 2.804zm5.718 2.81c-.759-1.676-1.515-3.234-2.39-4.748l-3.328 3.352-3.31-3.334c-.828 1.438-1.558 2.934-2.28 4.557-.786 2.202-2.078 4.577-.97 6.691 1.907 3.644 6.387 5.054 10.006 3.135a7.503 7.503 0 0 0 3.112-3.135c1.099-2.114-.054-4.316-.84-6.517z"/></svg>
